svg/arrow/trending_up_fill.svg

<?xml version="1.0" encoding="UTF-8"?>
<svg width="24px" height="24px" viewBox="0 0 24 24" version="1.1" xmlns="http://www.w3.org/2000/svg" xmlns:xlink="http://www.w3.org/1999/xlink">
    <title>trending_up_fill</title>
    <g id="Icon" stroke="none" stroke-width="1" fill="none" fill-rule="evenodd">
        <g id="Arrow" transform="translate(-864.000000, -242.000000)" fill-rule="nonzero">
            <g id="trending_up_fill" transform="translate(864.000000, 242.000000)">
                <path d="M24,0 L24,24 L0,24 L0,0 L24,0 Z M12.5935,23.2578 L12.5819,23.2595 L12.5109,23.295 L12.4919,23.2987 L12.4767,23.295 L12.4057,23.2595 C12.3958,23.2564 12.387,23.259 12.3821,23.2649 L12.378,23.2758 L12.3609,23.7031 L12.3659,23.7235 L12.3769,23.7357 L12.4805,23.8097 L12.4953,23.8136 L12.5071,23.8097 L12.6107,23.7357 L12.6233,23.7197 L12.6267,23.7031 L12.6096,23.2758 C12.6076,23.2657 12.601,23.2593 12.5935,23.2578 Z M12.8584,23.1453 L12.8445,23.1473 L12.6598,23.2397 L12.6499,23.2499 L12.6472,23.2611 L12.6651,23.6906 L12.6699,23.7034 L12.6784,23.7105 L12.8793,23.8032 C12.8914,23.8069 12.9022,23.803 12.9078,23.7952 L12.9118,23.7812 L12.8777,23.1665 C12.8753,23.1546 12.8674,23.147 12.8584,23.1453 Z M12.143,23.1473 C12.1332,23.1424 12.1222,23.1453 12.1156,23.1526 L12.1099,23.1665 L12.0758,23.7812 C12.0751,23.7927 12.0828,23.8019 12.0926,23.8046 L12.1083,23.8032 L12.3092,23.7105 L12.3186,23.7024 L12.3225,23.6906 L12.3404,23.2611 L12.3372,23.2485 L12.3278,23.2397 L12.143,23.1473 Z" id="MingCute"></path>
                <path d="M16.9999975,5.5 C16.1716,5.5 15.4999975,6.17157 15.4999975,7 C15.4999975,7.82843 16.1716,8.5 16.9999975,8.5 L17.3787,8.5 L13.9999975,11.8787 L10.5607,8.43934 C9.97487,7.85355 9.02513,7.85355 8.43934,8.43934 L1.93934,14.9393 C1.35355,15.5251 1.35355,16.4749 1.93934,17.0607 C2.52513,17.6464 3.47487,17.6464 4.06066,17.0607 L9.4999975,11.6213 L12.9393,15.0607 C13.5251,15.6464 14.4749,15.6464 15.0607,15.0607 L19.4999975,10.6213 L19.4999975,11 C19.4999975,11.8284 20.1716,12.5 20.9999975,12.5 C21.8284,12.5 22.4999975,11.8284 22.4999975,11 L22.4999975,7 C22.4999975,6.17157 21.8284,5.5 20.9999975,5.5 L16.9999975,5.5 Z" id="路径" fill="#09244B"></path>
            </g>
        </g>
    </g>
</svg>

<svg xmlns="http://www.w3.org/2000/svg" width="24" height="24"><g fill="none" fill-rule="nonzero"><path d="M24 0v24H0V0h24ZM12.594 23.258l-.012.002-.071.035-.02.004-.014-.004-.071-.036c-.01-.003-.019 0-.024.006l-.004.01-.017.428.005.02.01.013.104.074.015.004.012-.004.104-.074.012-.016.004-.017-.017-.427c-.002-.01-.009-.017-.016-.018Zm.264-.113-.014.002-.184.093-.01.01-.003.011.018.43.005.012.008.008.201.092c.012.004.023 0 .029-.008l.004-.014-.034-.614c-.003-.012-.01-.02-.02-.022Zm-.715.002a.023.023 0 0 0-.027.006l-.006.014-.034.614c0 .012.007.02.017.024l.015-.002.201-.093.01-.008.003-.011.018-.43-.003-.012-.01-.01-.184-.092Z"/><path fill="#09244B" d="M17 5.5a1.5 1.5 0 0 0 0 3h.379L14 11.879l-3.44-3.44a1.5 1.5 0 0 0-2.12 0l-6.5 6.5a1.5 1.5 0 0 0 2.12 2.122l5.44-5.44 3.44 3.44a1.5 1.5 0 0 0 2.12 0l4.44-4.44V11a1.5 1.5 0 0 0 3 0V7A1.5 1.5 0 0 0 21 5.5h-4Z"/></g></svg>
